public/assets/imgs/page/homepage5/agon.svg

<svg width="268" height="63" viewBox="0 0 268 63" fill="none" xmlns="http://www.w3.org/2000/svg">
<g clip-path="url(#clip0_2_480)">
<path d="M50.4968 6.10154C51.1316 5.4668 50.7084 4.33838 49.7916 4.33838H43.6558C41.681 4.33838 39.7768 5.11417 38.4368 6.52469L27.2231 17.6679L33.0768 23.5215L50.4968 6.10154Z" fill="#C3C9CB"/>
<path d="M21.299 23.5922L24.8958 27.189C26.1653 28.4585 28.14 28.4585 29.4095 27.189L32.3716 24.2269L33.0063 23.5922L27.1526 17.7385L23.4853 14.0711C22.1453 12.7311 20.2411 11.9553 18.3368 11.9553H9.66211L21.299 23.5922Z" fill="#DDE1E2"/>
<path d="M3.87898 56.951C3.24425 57.5857 3.6674 58.7142 4.58425 58.7142H10.7906C12.6948 58.7142 14.599 57.9384 15.939 56.5984L27.1527 45.3847L21.299 39.531L3.87898 56.951Z" fill="#C3C9CB"/>
<path d="M29.4095 35.8637C28.14 34.5943 26.1653 34.5943 24.8958 35.8637L21.9337 38.8258L21.299 39.4606L27.1526 45.3143L30.82 48.9816C32.2305 50.3921 34.1347 51.1679 36.1095 51.1679H44.7137L33.0768 39.5311L29.4095 35.8637Z" fill="#DDE1E2"/>
<path d="M13.3295 31.5616L9.6621 35.2289L19.1832 25.7079L1.76316 8.21736C1.12842 7.58262 0 8.00578 0 8.92262V15.0584C0 17.0332 0.775789 18.8668 2.18632 20.2774L13.3295 31.5616Z" fill="#C3C9CB"/>
<path d="M7.54633 40.3774V49.0522L19.2537 37.3448L22.8505 33.6774C24.12 32.4079 24.12 30.4332 22.8505 29.1637L19.2537 25.5669L9.66211 35.229C8.32212 36.569 7.54633 38.4732 7.54633 40.3774Z" fill="#DDE1E2"/>
<path d="M35.2632 37.3449L52.6832 54.8355C53.3179 55.4702 54.3758 55.047 54.3758 54.1302V47.9239C54.3758 45.9491 53.6 44.1155 52.26 42.7755L41.1169 31.5618L35.2632 37.3449Z" fill="#C3C9CB"/>
<path d="M46.9 22.7458V14.0005L35.2631 25.6373L31.7368 29.2342C30.5378 30.5036 30.5378 32.4784 31.7368 33.7479L35.3336 37.3447L44.8547 27.8236C46.1242 26.4836 46.9 24.65 46.9 22.7458Z" fill="#DDE1E2"/>
</g>
<path d="M65.3995 45.5264L79.7227 13.7218H90.7098L105.033 45.5264H97.2931L94.2683 38.8096H76.1642L73.1394 45.5264H65.3995ZM78.7441 33.0269H91.6884L85.5054 19.282H84.9271L78.7441 33.0269ZM111.983 55.5348V50.4194H125.416C127.195 50.4194 128.085 49.5149 128.085 47.706V45.5264H118.299C114.325 45.5264 111.226 44.5478 109.002 42.5906C106.778 40.6334 105.666 37.8013 105.666 34.0945C105.666 30.358 106.778 27.5112 109.002 25.554C111.226 23.5968 114.325 22.6182 118.299 22.6182H134.535V48.5067C134.535 50.6121 133.927 52.3024 132.711 53.5776C131.495 54.8824 129.597 55.5348 127.017 55.5348H111.983ZM118.299 40.4109H128.085V27.7336H118.299C116.371 27.7336 114.889 28.2674 113.851 29.3349C112.843 30.3729 112.338 31.9594 112.338 34.0945C112.338 36.2 112.843 37.7865 113.851 38.8541C114.889 39.892 116.371 40.4109 118.299 40.4109ZM151.155 45.7488C147.181 45.7488 144.082 44.7702 141.858 42.813C139.634 40.8261 138.522 37.92 138.522 34.0945C138.522 30.2394 139.634 27.3333 141.858 25.376C144.082 23.3892 147.181 22.3958 151.155 22.3958H159.384C163.358 22.3958 166.457 23.3892 168.681 25.376C170.905 27.3333 172.017 30.2394 172.017 34.0945C172.017 37.92 170.905 40.8261 168.681 42.813C166.457 44.7702 163.358 45.7488 159.384 45.7488H151.155ZM151.155 40.6334H159.384C161.312 40.6334 162.779 40.0996 163.788 39.032C164.826 37.9644 165.345 36.3186 165.345 34.0945C165.345 31.8408 164.826 30.1801 163.788 29.1125C162.779 28.045 161.312 27.5112 159.384 27.5112H151.155C149.227 27.5112 147.745 28.045 146.707 29.1125C145.698 30.1801 145.194 31.8408 145.194 34.0945C145.194 36.3186 145.698 37.9644 146.707 39.032C147.745 40.0996 149.227 40.6334 151.155 40.6334ZM176.003 45.5264V22.6182H195.976C198.585 22.6182 200.483 23.2706 201.669 24.5754C202.885 25.8505 203.493 27.5408 203.493 29.6463V45.5264H197.043V30.4025C197.043 28.6232 196.153 27.7336 194.374 27.7336H182.453V45.5264H176.003Z" fill="#C3C9CB"/>
<defs>
<clipPath id="clip0_2_480">
<rect width="54.3758" height="54.3758" fill="white" transform="translate(0 4.33838)"/>
</clipPath>
</defs>
</svg>

<svg width="268" height="63" fill="none" xmlns="http://www.w3.org/2000/svg"><g clip-path="url(#a)"><path d="M50.497 6.102c.635-.635.211-1.764-.705-1.764h-6.136c-1.975 0-3.88.776-5.22 2.187L27.224 17.668l5.854 5.854 17.42-17.42Z" fill="#C3C9CB"/><path d="m21.299 23.592 3.597 3.597c1.27 1.27 3.244 1.27 4.514 0l2.962-2.962.634-.635-5.853-5.854-3.668-3.667c-1.34-1.34-3.244-2.116-5.148-2.116H9.662L21.3 23.592Z" fill="#DDE1E2"/><path d="M3.879 56.951c-.635.635-.212 1.763.705 1.763h6.207c1.904 0 3.808-.776 5.148-2.116l11.214-11.213-5.854-5.854-17.42 17.42Z" fill="#C3C9CB"/><path d="M29.41 35.864c-1.27-1.27-3.245-1.27-4.514 0l-2.962 2.962-.635.635 5.854 5.853 3.667 3.668a7.473 7.473 0 0 0 5.29 2.186h8.604L33.077 39.53l-3.667-3.667Z" fill="#DDE1E2"/><path d="m13.33 31.562-3.668 3.667 9.521-9.521-17.42-17.49C1.128 7.582 0 8.005 0 8.922v6.135c0 1.975.776 3.809 2.186 5.22L13.33 31.561Z" fill="#C3C9CB"/><path d="M7.546 40.377v8.675l11.708-11.707 3.596-3.668c1.27-1.27 1.27-3.244 0-4.513l-3.596-3.597-9.592 9.662c-1.34 1.34-2.116 3.244-2.116 5.148Z" fill="#DDE1E2"/><path d="m35.263 37.345 17.42 17.49a.983.983 0 0 0 1.693-.705v-6.206a7.252 7.252 0 0 0-2.116-5.148L41.117 31.562l-5.854 5.783Z" fill="#C3C9CB"/><path d="M46.9 22.746V14L35.263 25.636l-3.526 3.597a3.282 3.282 0 0 0 0 4.514l3.597 3.597 9.52-9.521c1.27-1.34 2.046-3.174 2.046-5.078Z" fill="#DDE1E2"/></g><path d="m65.4 45.526 14.323-31.804H90.71l14.323 31.804h-7.74l-3.025-6.716H76.164l-3.025 6.716H65.4Zm13.344-12.5h12.944l-6.183-13.744h-.578l-6.183 13.745Zm33.239 22.509v-5.116h13.433c1.779 0 2.669-.904 2.669-2.713v-2.18h-9.786c-3.974 0-7.073-.978-9.297-2.935-2.224-1.958-3.336-4.79-3.336-8.497 0-3.736 1.112-6.583 3.336-8.54 2.224-1.957 5.323-2.936 9.297-2.936h16.236v25.889c0 2.105-.608 3.795-1.824 5.07-1.216 1.305-3.114 1.958-5.694 1.958h-15.034Zm6.316-15.124h9.786V27.734h-9.786c-1.928 0-3.41.533-4.448 1.6-1.008 1.039-1.513 2.625-1.513 4.76 0 2.106.505 3.692 1.513 4.76 1.038 1.038 2.52 1.557 4.448 1.557Zm32.856 5.338c-3.974 0-7.073-.979-9.297-2.936-2.224-1.987-3.336-4.893-3.336-8.719 0-3.855 1.112-6.76 3.336-8.718 2.224-1.987 5.323-2.98 9.297-2.98h8.229c3.974 0 7.073.993 9.297 2.98 2.224 1.957 3.336 4.863 3.336 8.718 0 3.826-1.112 6.732-3.336 8.719-2.224 1.957-5.323 2.936-9.297 2.936h-8.229Zm0-5.116h8.229c1.928 0 3.395-.533 4.404-1.601 1.038-1.068 1.557-2.713 1.557-4.938 0-2.253-.519-3.914-1.557-4.982-1.009-1.067-2.476-1.6-4.404-1.6h-8.229c-1.928 0-3.41.533-4.448 1.6-1.009 1.068-1.513 2.729-1.513 4.982 0 2.225.504 3.87 1.513 4.938 1.038 1.068 2.52 1.601 4.448 1.601Zm24.848 4.893V22.618h19.973c2.609 0 4.507.653 5.693 1.957 1.216 1.276 1.824 2.966 1.824 5.071v15.88h-6.45V30.402c0-1.779-.89-2.668-2.669-2.668h-11.921v17.792h-6.45Z" fill="#C3C9CB"/><defs><clipPath id="a"><path fill="#fff" transform="translate(0 4.338)" d="M0 0h54.376v54.376H0z"/></clipPath></defs></svg>
